assets/features/payment-flow/ACH.svg

<svg width="42" height="15" viewBox="0 0 42 15" fill="none" xmlns="http://www.w3.org/2000/svg">
<path d="M2.81251 14.7444H5.56558e-06L5.12074 0.19893H8.37359L13.5014 14.7444H10.6889L6.80398 3.18188H6.69035L2.81251 14.7444ZM2.90484 9.04126H10.5753V11.1577H2.90484V9.04126ZM27.184 5.1066H24.5277C24.4519 4.67099 24.3123 4.2851 24.1087 3.94893C23.9051 3.60802 23.6518 3.31919 23.3487 3.08245C23.0457 2.84571 22.7001 2.66815 22.3118 2.54978C21.9283 2.42668 21.514 2.36512 21.0689 2.36512C20.2782 2.36512 19.5774 2.56399 18.9666 2.96171C18.3558 3.35471 17.8776 3.93236 17.532 4.69467C17.1863 5.45224 17.0135 6.37791 17.0135 7.47166C17.0135 8.58435 17.1863 9.52185 17.532 10.2842C17.8823 11.0417 18.3606 11.6146 18.9666 12.0029C19.5774 12.3864 20.2758 12.5782 21.0618 12.5782C21.4974 12.5782 21.9046 12.5214 22.2834 12.4077C22.6669 12.2894 23.0102 12.1165 23.3132 11.8893C23.621 11.662 23.879 11.3826 24.0874 11.0512C24.3004 10.7198 24.4472 10.341 24.5277 9.91484L27.184 9.92904C27.0845 10.6203 26.8691 11.269 26.5376 11.8751C26.2109 12.4811 25.7824 13.0162 25.2521 13.4802C24.7218 13.9395 24.1016 14.2993 23.3913 14.5597C22.6811 14.8154 21.8928 14.9432 21.0263 14.9432C19.7479 14.9432 18.6068 14.6473 17.603 14.0555C16.5992 13.4636 15.8085 12.609 15.2308 11.4915C14.6532 10.3741 14.3644 9.03416 14.3644 7.47166C14.3644 5.90442 14.6555 4.56446 15.2379 3.45177C15.8203 2.33435 16.6134 1.47971 17.6172 0.88785C18.621 0.295994 19.7573 6.60419e-05 21.0263 6.60419e-05C21.8359 6.60419e-05 22.5888 0.113702 23.2848 0.340975C23.9808 0.568248 24.6011 0.902055 25.1456 1.3424C25.6901 1.778 26.1376 2.31304 26.4879 2.94751C26.843 3.57724 27.0751 4.29694 27.184 5.1066ZM29.597 14.7444V0.19893H32.2319V6.3566H38.972V0.19893H41.614V14.7444H38.972V8.56541H32.2319V14.7444H29.597Z" fill="black"/>
</svg>

<svg xmlns="http://www.w3.org/2000/svg" width="42" height="15" fill="none" viewBox="0 0 42 15"><path fill="#000" d="M2.813 14.744H0L5.12.2h3.254L13.5 14.744h-2.81L6.804 3.182H6.69zm.092-5.703h7.67v2.117h-7.67zm24.279-3.934h-2.656a3.3 3.3 0 0 0-.42-1.158 3.1 3.1 0 0 0-.76-.867 3.2 3.2 0 0 0-1.036-.532 4 4 0 0 0-1.243-.185q-1.186 0-2.102.597-.917.589-1.435 1.733-.518 1.136-.518 2.777 0 1.668.518 2.812.526 1.136 1.435 1.719.916.575 2.095.575a4.2 4.2 0 0 0 1.221-.17 3.3 3.3 0 0 0 1.03-.519q.462-.34.774-.838.32-.497.44-1.136l2.657.014a5.7 5.7 0 0 1-.646 1.946 5.7 5.7 0 0 1-1.286 1.605q-.795.69-1.86 1.08-1.066.383-2.366.383-1.918 0-3.423-.887-1.506-.888-2.372-2.564-.867-1.677-.867-4.02 0-2.352.874-4.02.873-1.677 2.38-2.564Q19.122 0 21.025 0q1.215 0 2.259.341a5.8 5.8 0 0 1 1.86 1.001q.818.654 1.343 1.606.533.944.696 2.159m2.413 9.637V.2h2.635v6.158h6.74V.199h2.642v14.545h-2.642V8.565h-6.74v6.18z"/></svg>
